X: 88
%
U:~=!turn!
T: Captain Byng
C:Nath. Gow
O:Scotland
B:Keith Norman MacDonald : "The Skye collection of the best reels & strathspeys extant" : 1887
Z:Ralph Palmer
R:Reel
M:C
L:1/8
K:G
g | fdgd BGGB | cAag fdef | {/a}gfgd BGGB | cAdB G2 G :| c | BGdG BGGB | cAeA cAAc |
BGdG BGGB | cAdB G2 Gc | (BG)dG BGGB | cAeA cAAc | BGdB ecdB | cAdB G2 G |]


